X:1
T:Title
%%score { ( 1 4 ) | ( 2 3 ) }
L:1/8
M:4/4
K:Bb
V:1 treble nm="Grand Piano"
V:4 treble 
V:2 bass 
V:3 bass 
V:1
 z4 z2[Q:1/4=100] [DF]2 | [DB]3 [FB] c2 A2 | B6 c2 | d3 d e2 d2 | c6 d2 | B3 [Gd] [Gc]2 [=EB]2 | %6
 [FA]2 [Fc]2 [B,FB]2 [CFA]2 | [DFG]3 [FB] [C=EA]2 [B,EG]2 |[M:3/4] [A,F]6 |[M:1/4] F2 | %10
[M:4/4] c3 c A2 F2 | [FB]6 B2 | e3 e d2 [Fd]2 | [Fc]6 [Gc]2 | [^Fd]3 [EFc] [DFB]2 [CFA]2 | %15
 [B,G]2 [F=B]2 [Ec]2 [Fd]2 | [Ee]3 c B2 z E |[M:3/4] [DB]6 |] %18
V:2
 z4 z2 [B,,B,]2 | [B,,F,]3 [D,B,] [F,A,E]2 [F,CE]2 | [G,B,D]6 [F,A,F]2 | %3
 [B,F]3 [B,F] [A,CF]2 [B,F]2 | [F,A,F]6 [^F,A,D]2 | [G,D]3 [F,=B,] [=E,C]2 [C,C]2 | %6
 [F,C]2 [E,A,]2 D,2 C,2 | B,,2 z D C,2 C,2 |[M:3/4] F,6 |[M:1/4] F,2 | %10
[M:4/4] [F,A,F]3 [F,A,F] [F,CF]2 [E,A,]2 | [D,B,]6[K:treble] [_A,B,D]2 | %12
 [G,B,E]3 [A,CF] [B,F]2[K:bass] [B,,B,]2 | [F,A,]6 [E,A,]2 | [D,A,]3 D, D,2 D,2 | %15
 E,2 [D,G,]2 [C,G,]2 [=B,,_A,]2 | [C,G,]3 [E,G,E] [F,D]2 .[F,C]2 |[M:3/4] [B,,F,]6 |] %18
V:3
 x8 | x8 | x8 | x8 | x8 | x8 | x8 | z2 G,,2 z4 |[M:3/4] x6 |[M:1/4] x2 |[M:4/4] x8 | %11
 x6[K:treble] x2 | x6[K:bass] x2 | x8 | x8 | x8 | x8 |[M:3/4] x6 |] %18
V:4
 x8 | x8 | x8 | x8 | x8 | x8 | x8 | x8 |[M:3/4] x6 |[M:1/4] x2 |[M:4/4] x8 | x8 | x8 | x8 | x8 | %15
 x8 | z4 z2 A2 |[M:3/4] x6 |] %18

